X: 458
P: Longways for as many as will
M: 6/4
L: 1/4
K: Gm
(fe)d (cB) A | A2G G2 |]\
d2c (Bc)d | (eg)f (fe)d |\
(ba)g (fe)d | c2B B2a |\
b2a (gf)=e | (=ea)g ^f2g |\
(dc)B (ed)c | A2G G2 |]

